Papirus/22x22/apps/pulseeffects.svg

<svg width="22" height="22" version="1" xmlns="http://www.w3.org/2000/svg">
 <g transform="translate(-1,-1)">
  <rect transform="matrix(0,-1,-1,0,0,0)" x="-22.5" y="-22" width="20" height="20" rx="1" ry="1" style="opacity:.2"/>
  <rect transform="matrix(0,-1,-1,0,0,0)" x="-22" y="-22" width="20" height="20" rx="1" ry="1" style="fill:#4f4f4f"/>
  <path d="m7 6c-0.554 0-1 0.446-1 1v10c0 0.554 0.446 1 1 1s1-0.446 1-1v-10c0-0.554-0.446-1-1-1zm5 0c-0.554 0-1 0.446-1 1v10c0 0.554 0.446 1 1 1s1-0.446 1-1v-10c0-0.554-0.446-1-1-1zm5 0c-0.554 0-1 0.446-1 1v10c0 0.554 0.446 1 1 1s1-0.446 1-1v-10c0-0.554-0.446-1-1-1z" style="opacity:.3"/>
  <path d="m7 10c-0.554 0-1 0.446-1 1v6c0 0.554 0.446 1 1 1s1-0.446 1-1v-6c0-0.554-0.446-1-1-1zm5 4.732c-0.554 0-1 0.446-1 1v1.268c0 0.554 0.446 1 1 1s1-0.446 1-1v-1.268c0-0.554-0.446-1-1-1zm5-2.732c-0.554 0-1 0.446-1 1v4c0 0.554 0.446 1 1 1s1-0.446 1-1v-4c0-0.554-0.446-1-1-1z" style="fill:#00ab43"/>
  <path d="m3 2c-0.554 0-1 0.446-1 1v0.5c0-0.554 0.446-1 1-1h18c0.554 0 1 0.446 1 1v-0.5c0-0.554-0.446-1-1-1z" style="fill:#ffffff;opacity:.1"/>
  <path d="m9 10.5a2 2 0 0 1-2 2 2 2 0 0 1-2-2 2 2 0 0 1 2-2 2 2 0 0 1 2 2z" style="opacity:.2"/>
  <path d="m9 9.9998a2 2 0 0 1-2 2.0002 2 2 0 0 1-2-2.0002 2 2 0 0 1 2-2 2 2 0 0 1 2 2z" style="fill:#828282"/>
  <path d="m14 14.5a2 2 0 0 1-2 2 2 2 0 0 1-2-2 2 2 0 0 1 2-2 2 2 0 0 1 2 2z" style="opacity:.2"/>
  <path d="m14 14a2 2 0 0 1-2 2 2 2 0 0 1-2-2 2 2 0 0 1 2-2 2 2 0 0 1 2 2z" style="fill:#828282"/>
  <path d="m19 12.5a2 2 0 0 1-2 2 2 2 0 0 1-2-2 2 2 0 0 1 2-2 2 2 0 0 1 2 2z" style="opacity:.2"/>
  <path d="m19 12a2 2 0 0 1-2 2 2 2 0 0 1-2-2 2 2 0 0 1 2-2 2 2 0 0 1 2 2z" style="fill:#828282"/>
 </g>
</svg>

<svg xmlns="http://www.w3.org/2000/svg" width="22" height="22" version="1">
 <g transform="translate(-1,-1)">
  <rect style="opacity:0.2" width="20" height="20" x="-22.5" y="-22" rx="1" ry="1" transform="matrix(0,-1,-1,0,0,0)"/>
  <rect style="fill:#5e5e5e" width="20" height="20" x="-22" y="-22" rx="1" ry="1" transform="matrix(0,-1,-1,0,0,0)"/>
  <path d="M 7,6 C 6.446,6 6,6.446 6,7 V 17 C 6,17.554 6.446,18 7,18 7.554,18 8,17.554 8,17 V 7 C 8,6.446 7.554,6 7,6 Z M 12,6 C 11.446,6 11,6.446 11,7 V 17 C 11,17.554 11.446,18 12,18 12.554,18 13,17.554 13,17 V 7 C 13,6.446 12.554,6 12,6 Z M 17,6 C 16.446,6 16,6.446 16,7 V 17 C 16,17.554 16.446,18 17,18 17.554,18 18,17.554 18,17 V 7 C 18,6.446 17.554,6 17,6 Z" style="opacity:0.3"/>
  <path style="fill:#dca200" d="M 7,10 C 6.446,10 6,10.446 6,11 V 17 C 6,17.554 6.446,18 7,18 7.554,18 8,17.554 8,17 V 11 C 8,10.446 7.554,10 7,10 Z M 12,14.732 C 11.446,14.732 11,15.178 11,15.732 V 17 C 11,17.554 11.446,18 12,18 12.554,18 13,17.554 13,17 V 15.732 C 13,15.178 12.554,14.732 12,14.732 Z M 17,12 C 16.446,12 16,12.446 16,13 V 17 C 16,17.554 16.446,18 17,18 17.554,18 18,17.554 18,17 V 13 C 18,12.446 17.554,12 17,12 Z"/>
  <path style="opacity:0.1;fill:#ffffff" d="M 3,2 C 2.446,2 2,2.446 2,3 V 3.5 C 2,2.946 2.446,2.5 3,2.5 H 21 C 21.554,2.5 22,2.946 22,3.5 V 3 C 22,2.446 21.554,2 21,2 Z"/>
  <path d="M 9,10.5 A 2,2 0 0 1 7,12.5 2,2 0 0 1 5,10.5 2,2 0 0 1 7,8.5 2,2 0 0 1 9,10.5 Z" style="opacity:0.2"/>
  <path style="fill:#fec006" d="M 9,9.9998 A 2,2 0 0 1 7,12 2,2 0 0 1 5,9.9998 2,2 0 0 1 7,7.9998 2,2 0 0 1 9,9.9998 Z"/>
  <path d="M 14,14.5 A 2,2 0 0 1 12,16.5 2,2 0 0 1 10,14.5 2,2 0 0 1 12,12.5 2,2 0 0 1 14,14.5 Z" style="opacity:0.2"/>
  <path style="fill:#fec006" d="M 14,14 A 2,2 0 0 1 12,16 2,2 0 0 1 10,14 2,2 0 0 1 12,12 2,2 0 0 1 14,14 Z"/>
  <path style="opacity:0.2" d="M 19,12.5 A 2,2 0 0 1 17,14.5 2,2 0 0 1 15,12.5 2,2 0 0 1 17,10.5 2,2 0 0 1 19,12.5 Z"/>
  <path style="fill:#fec006" d="M 19,12 A 2,2 0 0 1 17,14 2,2 0 0 1 15,12 2,2 0 0 1 17,10 2,2 0 0 1 19,12 Z"/>
 </g>
</svg>
